!!!COM: Mozart, Wolfgang Amadeus
!!!OTL: Quartet No. 1 in D Major for flute, violin, viola and cello
!!!OMD: Adagio
!!!OMV: 2
!!!SCT1: K<sup>1</sup> 285
!!!SCA: Chronologisch-thematisches Verzeichnis sämtlicher Tonwerke Wolfgang Amade Mozarts (L. von Köchel; 1862, 2/1905, 3/1937, 1947)
!!!SCT2: K<sup>6</sup> 285
!!!YOR: Breitkopf & Härtel Edition
!!!ENC: Frances Bennion
!!!CDT: 1756/1/27/-1791/12/5/
!!!OCY: Österreich
!!!YEC: Copyright (c) 1994, 2000 Center for Computer Assisted Research in the Humanities
!!!YEM: Rights to all derivative editions reserved.
!!!YEM: Refer to licensing agreement for further details.
!!!YEN: United States of America
**kern	**kern	**kern	**kern
*k[f#c#]	*k[f#c#]	*k[f#c#]	*k[f#c#]
*b:	*b:	*b:	*b:
*clefC	*clefF	*clefG	*clefG
*M3/4	*M3/4	*M3/4	*M3/4
8BB	8D	16r	8.ff#
.	.	16B	.
8r	8r	16d	.
.	.	16f#	32gg
.	.	.	32ff#
8B	8d	16r	4bb
.	.	16f#	.
8r	8r	16b	.
.	.	16dd	.
8B	8f#	16r	4ddd
.	.	16b	.
8r	8r	16dd	.
.	.	16ff#	.
=2	=2	=2	=2
8A#	8f#	16r	8.ccc#
.	.	16ff#	.
8r	8r	16cc#	.
.	.	16a#	16ee#
8AA#	8c#	16r	2ff#
.	.	16cc#	.
8r	8r	16a#	.
.	.	16f#	.
8AA#	8F#	16r	.
.	.	16a#	.
8r	8r	16f#	.
.	.	16c#	.
=3	=3	=3	=3
8FF#	8c#	16r	8.ee
.	.	16A#	.
8r	8r	16c#	.
.	.	16e	32ff#
.	.	.	32ee
8F#	8A#	16r	4ccc#
.	.	16ee	.
8r	8r	16cc#	.
.	.	16a#	.
8F#	8a#	16r	4ee
.	.	16cc#	.
8r	8r	16a#	.
.	.	16f#	.
=4	=4	=4	=4
8B	8b	16r	8.dd
.	.	16f#	.
8r	8r	16b	.
.	.	16cc#	16ee
8BB	8B	16r	2ff#
.	.	16dd	.
8r	8r	16b	.
.	.	16f#	.
8BB	8d	16r	.
.	.	16b	.
8r	8r	16f#	.
.	.	16d	.
=5	=5	=5	=5
4E	16r	16r	4.gg
.	16d#	16f#	.
.	16e	16g	.
.	16f#	16a	.
16r	4g	4b	.
16E	.	.	.
16F#	.	.	16ff#
16G	.	.	16ee
4A	16r	16r	16dd
.	16e	16g	16cc#
.	16c#	16e	16ee
.	16A	16c#	16gg
=6	=6	=6	=6
4D	16r	16r	4.ff#
.	16a	16dd	.
.	16f#	16a	.
.	16e	16g	.
16r	4d	4f#	.
16D	.	.	.
16E	.	.	16ee
16F#	.	.	16dd
4G	16r	16r	16cc#
.	16f#	16dd	16b
.	16d	16f#	16bb
.	16f#	16b	16dd
=7	=7	=7	=7
4C#	16r	16r	4.ee
.	16g	16b	.
.	16e	16g	.
.	16c#	16e	.
16r	8.A#	8.c#	.
16G	.	.	.
16F#	.	.	16ccc#
16A#	16f#	16cc#	16ee
8B	8f#	8b	16ee
.	.	.	16dd
8E#	8g#	8b	16bb
.	.	.	16dd
=8	=8	=8	=8
8F#	8f#	16r	8.ff#
.	.	16dd	.
8r	8r	16dd	.
.	.	16b	16dd
8FF#	16f#	16a#	4cc#
.	16g	16b	.
4.r	16f#	16a#	.
.	16e	16g	.
.	16d	16f#	4r
.	16c#	16e	.
.	16B	16d	.
.	16A#	16c#	.
=9	=9	=9	=9
8BB	8B	16r	8.ff#
.	.	16d	.
8r	8r	16f#	.
.	.	16b	32gg
.	.	.	32ff#
8B	8f#	16r	4bb
.	.	16dd	.
8r	8r	16b	.
.	.	16f#	.
8B	8d	16r	4ddd
.	.	16g	.
8r	8r	16b	.
.	.	16dd	.
=10	=10	=10	=10
8B	8g#	16r	8.ccc#
.	.	16e#	.
8r	8r	16g#	.
.	.	16cc#	16ee#
8A#	8c#	16r	2ff#
.	.	16cc#	.
8r	8r	16a#	.
.	.	16f#	.
8AA#	8F#	16r	.
.	.	16a#	.
8r	8r	16f#	.
.	.	16c#	.
=11	=11	=11	=11
8AA	8A	16r	8.ff#
.	.	16c	.
8r	8r	16f#	.
.	.	16a	32gg
.	.	.	32ff#
8A	8f	16r	4aa
.	.	16cc	.
8r	8r	16a	.
.	.	16f	.
8A	8c	16r	4ccc
.	.	16e	.
8r	8r	16a	.
.	.	16cc	.
=12	=12	=12	=12
8A	8f#	16r	8.bb
.	.	16d#	.
8r	8r	16f#	.
.	.	16b	16dd#
8G#	8B	16r	2ee
.	.	16b	.
8r	8r	16g#	.
.	.	16e	.
8GG#	8E	16r	.
.	.	16g#	.
8r	8r	16e	.
.	.	16B	.
=13	=13	=13	=13
8GG	8B	16r	[4ee
.	.	16G	.
8r	8r	16B	.
.	.	16e	.
8G	8b	16g	16ee]
.	.	16a	16ff#
4.r	4.r	16b	16gg
.	.	16a	16ff#
.	.	16g	16ee
.	.	16f#	16dd
.	.	16e	16cc#
.	.	16d	16b
=14	=14	=14	=14
8r	8c#	16r	8a#
.	.	16e	.
8G	8r	16a#	4eee
.	.	16cc#	.
8F#	8a#	16r	.
.	.	16cc#	.
8E	8r	16ee	8aa#
.	.	16gg	.
4D	8b	16ff#	8bb
.	.	16dd	.
.	8r	16b	8ff#
.	.	16f#	.
=15	=15	=15	=15
8E	8b 8g	16r	8gg
.	.	16ee	.
8r	8r	16dd	16ff#
.	.	16cc#	16ee
8F#	8f#	16b	4dd
.	.	16d	.
8r	8r	16f#	.
.	.	16b	.
8F#	8f#	16r	4cc#
.	.	16e	.
8r	8r	16f#	.
.	.	16a#	.
=16	=16	=16	=16
4BB	16r	16r	4b
.	16B	16d	.
.	16d	16f#	.
.	16f#	16b	.
2r	16b	16dd	4r
.	16dd	16ff#	.
.	16f#	16b	.
.	16b	16dd	.
.	16d	16f#	8ff#
.	16f#	16b	.
.	16B	16d	8ff#
.	16d	16f#	.
=17	=17	=17	=17
8BB	8d 8B	16r	[4gg
.	.	16G	.
8r	8r	16B	.
.	.	16d	.
8AA	8e 8c#	16g	16gg]
.	.	16g	16gg
8r	8r	16a	16aa
.	.	16b	16bb
8A	16c#	16e	16ee
.	16c#	16e	16ee
8r	16d	16f#	16ff#
.	16e	16g	16gg
=18	=18	=18	=18
8D	16r	16r	4gg
.	16e	16g	.
8r	16g	16a	.
.	16e	16cc#	.
8D	16d	16dd	4ff#
.	16dd	16ff#	.
4.r	16f#	16a	.
.	16a	16dd	.
.	16d	16f#	8aa
.	16f#	16a	.
.	16F#	16d	8aa
.	16A	16f#	.
=19	=19	=19	=19
8G	8B	16r	16aa
.	.	16dd	16gg
8r	8r	16gg	16bb
.	.	16ff#	16aa
8G	8e	16r	16aa
.	.	16b	16gg
8r	8r	16ee	16gg
.	.	16dd	16ff#
8G#	8e	16r	16ff#
.	.	16e	16ee
8r	8r	16cc#	16ee
.	.	16b	16dd
=20	=20	=20	=20
8A	16r	16r	8cc#
.	16e	16a	.
8r	16d	16g#	16b
.	16c#	16a	16a
8G	16e	16g	4a
.	16c#	16e	.
8r	16B	16d	.
.	16A	16c#	.
8F#	16f#	16a	16dd
.	16d	16f#	16aa
8r	16e	16g	16gg
.	16f#	16a	16ff#
=21	=21	=21	=21
8G	16r	16r	8.ff#
.	16B	16d	.
8r	16d	16b	.
.	16b	16dd	16ee
8GG	16r	16r	4.ee
.	16b	16dd	.
4.r	16dd	16bb	.
.	16b	16dd	.
.	16dd	16bb	.
.	16b	16dd	.
.	16g	16b	8ddd
.	16e	16g	.
=22	=22	=22	=22
8G#	16r	16r	8.ddd
.	16B	16f	.
8r	16f	16b	.
.	16b	16dd	16ff
8GG#	16r	16r	4.ff
.	16b	16dd	.
4.r	16dd	16bb	.
.	16b	16dd	.
.	16dd	16bb	.
.	16b	16dd	.
.	16g#	16b	8ddd
.	16f	16g#	.
=23	=23	=23	=23
8AA	16r	16r	8ddd
.	16f#	16a	.
8r	16a	16dd	4ff#
.	16f#	16a	.
8A	16d	16f#	.
.	16d	16f#	.
8r	16e	16g	16gg
.	16f#	16a	16aa
8A	8e	16a	8gg
.	.	16g	.
8r	16d	16f#	16ff#
.	16c#	16e	16ee
=24	=24	=24	=24
4D	4d	4d	4.dd
2r	2r	2r	.
.	.	.	8dd#
.	.	.	8ee
.	.	.	8ee#
=25	=25	=25	=25
8A#	8c#	16r	8.ff#
.	.	16f#	.
8r	8r	16cc#	.
.	.	16ee	32gg
.	.	.	32ff#
8B	8d	16r	4bb
.	.	16dd	.
8r	8r	16b	.
.	.	16f#	.
8E#	8B	16r	4ddd
.	.	16g#	.
8r	8r	16b	.
.	.	16g#	.
=26	=26	=26	=26
8F#	8A#	16r	8.ccc#
.	.	16f#	.
8r	8r	16a#	.
.	.	16cc#	16ee#
8FF#	8c#	16r	2ff#
.	.	16a#	.
8r	8r	16f#	.
.	.	16c#	.
8F#	8A#	16r	.
.	.	16f#	.
8r	8r	16c#	.
.	.	16A#	.
=27	=27	=27	=27
8G	8B	16r	8.ee
.	.	16B	.
8r	8r	16e	.
.	.	16b	32ff#
.	.	.	32ee
8G#	8b	16r	4eee
.	.	16dd	.
8r	8r	16b	.
.	.	16e	.
8A#	8f#	16r	4ee
.	.	16cc#	.
8r	8r	16a#	.
.	.	16f#	.
=28	=28	=28	=28
8B	8f#	16r	8.dd
.	.	16f#	.
8r	8r	16b	.
.	.	16cc#	16ee
8BB	8b	16r	2ff#
.	.	16dd	.
8r	8r	16b	.
.	.	16f#	.
8B	8d	16r	.
.	.	16b	.
8r	8r	16f#	.
.	.	16d	.
=29	=29	=29	=29
4E	16r	16r	4.gg
.	16d#	16f#	.
.	16e	16g	.
.	16f#	16a	.
16r	4g	4b	.
16E	.	.	.
16F#	.	.	16ff#
16G	.	.	16ee
4A	16r	16r	16dd
.	16e	16g	16cc#
.	16c#	16e	16ee
.	16A	16c#	16gg
=30	=30	=30	=30
4D	16r	16r	4.ff#
.	16a	16dd	.
.	16f#	16a	.
.	16e	16g	.
16r	4d	4f#	.
16D	.	.	.
16E	.	.	16ee
16F#	.	.	16dd
4G	16r	16r	16cc#
.	16B	16d	16b
.	16e	16cc#	16aa#
.	16d	16b	16bb
=31	=31	=31	=31
8E	8b	16r	8gg
.	.	16ee	.
8r	8g	16dd	16ff#
.	.	16cc#	16ee
8F#	8f#	16r	4dd
.	.	16b	.
8r	8r	16f#	.
.	.	16d	.
8F#	8a 8f#	16r	4dd#
.	.	16cc	.
8r	8r	16a	.
.	.	16f#	.
=32	=32	=32	=32
4G	4g	4b	8.ee
.	.	.	16ff#
2r	2r	2r	8.gg
.	.	.	16aa
.	.	.	8bb
.	.	.	8r
=33	=33	=33	=33
8E	8b 8g	16r	8gg
.	.	16ee	.
8r	8r	16dd	16ff#
.	.	16cc#	16ee
8F#	8b 8f#	16r	4dd
.	.	16b	.
8r	8r	16f#	.
.	.	16d	.
8F#	8a 8f#	16r	4dd#
.	.	16cc	.
8r	8r	16a	.
.	.	16f#	.
=34	=34	=34	=34
8G	8g	8b 8g	8.ee
8r	8r	8r	.
.	.	.	16ff#
8E	8e	8b 8g	8.gg
8r	8r	8r	.
.	.	.	16aa
8C#	8e	8b 8g	8bb
8r	8r	8r	8r
=35	=35	=35	=35
2.r	2.r	2.r	2.r
==	==	==	==
*-	*-	*-	*-
!!!RWG1: This file contains only pitch and duration data.
!!!RWG2: Transposing instruments are not transposed.
!!!RWG3: Spines may have incompatible meters.
!!!RWG4: Durations of rests and tied notes may be interpreted.
!!!RWG: Key is interpreted using the Humdrum key tool.
!!!AFT: stage1
!!!END: 1997/04/15
!!!KEY: 513051719
!!!EMD: Converted from MuseData to Humdrum Dec 16, 2000, by Andreas Kornstaedt using muse2kern.
!!!EMD: Manual editing by Craig Sapp, Nov 2001
